packages/web-ui/src/images/AdultBadge.svg

<?xml version="1.0" encoding="UTF-8"?>
<svg width="20px" height="20px" viewBox="0 0 20 20" version="1.1" xmlns="http://www.w3.org/2000/svg" xmlns:xlink="http://www.w3.org/1999/xlink">
    <!-- Generator: Sketch 56.3 (81716) - https://sketch.com -->
    <title>AdultBadge</title>
    <desc>Created with Sketch.</desc>
    <g id="AdultBadge" stroke="none" stroke-width="1" fill="none" fill-rule="evenodd">
        <g id="Group" fill-rule="nonzero">
            <circle id="Oval" fill="#FFFFFF" cx="10" cy="10" r="10"></circle>
            <path d="M10,19 C5.03750475,19 1,14.9624952 1,10 C1,5.03750475 5.03750475,1 10,1 C14.9624952,1 19,5.03750475 19,10 C19,14.9624952 14.9624952,19 10,19 Z M10,2.36934196 C5.79269684,2.36934196 2.36934196,5.79269684 2.36934196,10 C2.36934196,14.2079878 5.79269684,17.630658 10,17.630658 C14.2073032,17.630658 17.630658,14.2079878 17.630658,10 C17.630658,5.79269684 14.2073032,2.36934196 10,2.36934196 Z" id="Shape" fill="#E64938"></path>
            <path d="M6.4074,14.0782 L6.4074,7.7968 L5.1306,8.0362 L5.1306,7.09 L7.2054,6.178 L8.0376,6.178 L8.0376,14.0782 L6.4074,14.0782 Z M11.889923,6.0982 C13.850723,6.0982 14.945123,7.3522 14.945123,9.5752 L14.945123,10.111 C14.945123,13.2688 13.394723,14.1694 11.490923,14.1694 C10.704323,14.1694 9.94052304,13.8844 9.57572304,13.6678 L9.80372304,12.4936 C10.122923,12.6646 10.863923,12.8926 11.399723,12.8926 C12.482723,12.8926 13.280723,12.562 13.349123,10.6468 C12.961523,10.966 12.334523,11.2738 11.547923,11.2738 C10.168523,11.2738 9.22232304,10.3618 9.22232304,8.857 C9.22232304,7.2724 10.077323,6.0982 11.889923,6.0982 Z M11.935523,7.2496 C11.160323,7.2496 10.749923,7.8082 10.749923,8.7202 C10.749923,9.712 11.297123,10.1452 12.038123,10.1452 C12.539723,10.1452 13.098323,9.8146 13.337723,9.484 L13.337723,9.3016 C13.337723,8.059 12.915923,7.2496 11.935523,7.2496 Z" id="19" fill="#212529"></path>
        </g>
    </g>
</svg>

<svg xmlns="http://www.w3.org/2000/svg" viewBox="0 0 20 20"><g fill="none"><circle cx="10" cy="10" r="10" fill="#FFF"/><path fill="#E64938" d="M10 19c-4.962 0-9-4.038-9-9s4.038-9 9-9 9 4.038 9 9-4.038 9-9 9zm0-16.63c-4.207 0-7.63 3.423-7.63 7.63 0 4.208 3.423 7.63 7.63 7.63s7.63-3.422 7.63-7.63c0-4.207-3.423-7.63-7.63-7.63z"/><path fill="#212529" d="M6.407 14.078V7.797l-1.276.24V7.09l2.074-.912h.833v7.9h-1.63zm5.483-7.98c1.96 0 3.055 1.254 3.055 3.477v.536c0 3.158-1.55 4.058-3.454 4.058-.787 0-1.55-.285-1.915-.501l.228-1.174c.319.17 1.06.399 1.596.399 1.083 0 1.88-.331 1.95-2.246a2.853 2.853 0 0 1-1.802.627c-1.38 0-2.326-.912-2.326-2.417 0-1.585.855-2.759 2.668-2.759zm.046 1.152c-.776 0-1.186.558-1.186 1.47 0 .992.547 1.425 1.288 1.425.502 0 1.06-.33 1.3-.661v-.182c0-1.243-.422-2.052-1.402-2.052z"/></g></svg>
